X: 32
T: Weishengme shoukuren hei dongdong
%%abc-version 2.0
%%abcx-abcm2ps-target-version 5.9.1 (29 Sep 2008)
%%abc-creator hum2abc beta
%%abcx-conversion-date 2013/10/02 07:52:29
%%abc-edited-by Helmut Schaffrath
%%humdrum-veritas 2721985630
%%humdrum-veritas-data 2017904822
%%continueall 1
%%barnumbers 0
L: 1/16
M: 2/4
K: G
e2d4e g [I:setbarnb 1]| 
B2> A2 G2 E2 | 
B2 B d A2 G E | 
A8 | 
e2d4e g | 
B2> A2 G2 E2 | 
B2> d2 A2 G E | 
D8 |]  



